images_sukapura_svg/cmd/32/wordcountdialog.svg

<svg viewBox="0 0 32 32" xmlns="http://www.w3.org/2000/svg" xmlns:xlink="http://www.w3.org/1999/xlink"><linearGradient id="a" gradientUnits="userSpaceOnUse" x1="17" x2="17" y1="29" y2="18"><stop offset="0" stop-color="#0040dd"/><stop offset="1" stop-color="#0a84ff"/></linearGradient><g fill="#808080"><g fill="#4b4b4f" stroke-width=".421877" transform="translate(3)"><path d="m10.679488 12.195611h-4.6966827l-.955816 2.80153h-2.0269893l4.4082896-11.9971396h1.8951525l4.3588509 11.9971396h-2.035229zm-4.1198971-1.672678h3.5513511l-1.7385965-5.1251516h-.049439z"/><path d="m15.054818 14.997141v-11.9971396h3.98806q1.99403 0 3.114642.8239794 1.120612.8157395 1.120612 2.4472187 0 .8157395-.469668 1.4584434-.469668.6427039-1.301887.9558161 1.071173.238954 1.647958 1.0299742.576786.7910198.576786 1.8374738 0 1.689158-1.104132 2.570816-1.104133.873418-3.048724.873418zm2.00227-5.4547435v3.8562235h2.521377q1.038214 0 1.59852-.469668.560306-.477908.560306-1.376046 0-.955816-.469668-1.483163-.469669-.5273465-1.466684-.5273465zm0-1.4914026h2.208265q.931097 0 1.466683-.4367091.543826-.4449488.543826-1.2524486 0-.8898977-.568545-1.318367-.568546-.436709-1.664439-.436709h-1.98579z"/></g><path d="m4 18c-.5577284 0-1.0058594.448131-1.0058594 1.005858v8.988212c0 .557728.448131 1.005859 1.0058594 1.005859h23.988282c.557728 0 1.005859-.448131 1.005859-1.005859v-8.988212c0-.557727-.448131-1.005858-1.005859-1.005858z" fill="url(#a)"/></g><g fill="#fff"><path d="m8.5606797 25.833333h1.4555023v-3.696491c0-.161404.0057-.329825.01699-.505263l-.9797738.784211c-.064185.04912-.1283709.07895-.1925567.08947-.064185.0105-.1245952.0105-.1812296 0-.056634-.0105-.1076052-.02806-.1529126-.05263-.041532-.02807-.073625-.05614-.096278-.08421l-.4304213-.547367 2.259709-1.821053h1.240291v5.833333h1.166667v1.166667h-4.1059873z"/><path d="m21.437269 20q.478098 0 .867853.145942.394952.140729.670379.40134.280624.260611.431328.630678.155903.364854.155903.807892 0 .380492-.10913.708861-.10913.323158-.291017.620254-.181885.291884-.426132.573343-.244247.276248-.514477.557707l-1.465479 1.537602q.233853-.07297.467707-.109457.233852-.0417.436525-.0417h1.564217q.197476 0 .317.114672.124721.114666.124721.302305v.750559h-4.666667v-.422189q0-.119881.04677-.255399.05196-.140729.176689-.26061l2.005939-2.069248q.25464-.265823.44692-.505585.197475-.239761.327394-.474311.135114-.239761.202673-.479524.06756-.244973.06756-.510796 0-.479524-.23905-.724498-.23905-.244974-.675576-.244974-.187082 0-.342984.05734-.155902.05734-.280623.156366-.124722.09903-.213066.234551-.08834.135518-.135116.291884-.08315.23976-.228656.312732-.140311.07296-.389754.03127l-.665187-.11466q.07795-.505585.280623-.880865.202673-.380491.504084-.630677.306607-.255398.701558-.380492.394955-.130313.847071-.130313z"/></g></svg>

<?xml version="1.0" encoding="UTF-8" standalone="no"?>
<svg
   xmlns:dc="http://purl.org/dc/elements/1.1/"
   xmlns:cc="http://creativecommons.org/ns#"
   xmlns:rdf="http://www.w3.org/1999/02/22-rdf-syntax-ns#"
   xmlns:svg="http://www.w3.org/2000/svg"
   xmlns="http://www.w3.org/2000/svg"
   xmlns:sodipodi="http://sodipodi.sourceforge.net/DTD/sodipodi-0.dtd"
   xmlns:inkscape="http://www.inkscape.org/namespaces/inkscape"
   viewBox="0 0 32 32"
   version="1.1"
   id="svg23"
   sodipodi:docname="wordcountdialog.svg"
   inkscape:version="0.92.3 (2405546, 2018-03-11)">
  <metadata
     id="metadata29">
    <rdf:RDF>
      <cc:Work
         rdf:about="">
        <dc:format>image/svg+xml</dc:format>
        <dc:type
           rdf:resource="http://purl.org/dc/dcmitype/StillImage" />
      </cc:Work>
    </rdf:RDF>
  </metadata>
  <defs
     id="defs27" />
  <sodipodi:namedview
     pagecolor="#ffffff"
     bordercolor="#666666"
     borderopacity="1"
     objecttolerance="10"
     gridtolerance="10"
     guidetolerance="10"
     inkscape:pageopacity="0"
     inkscape:pageshadow="2"
     inkscape:window-width="1366"
     inkscape:window-height="716"
     id="namedview25"
     showgrid="true"
     inkscape:zoom="10.429825"
     inkscape:cx="26.562078"
     inkscape:cy="11.018074"
     inkscape:window-x="-8"
     inkscape:window-y="-8"
     inkscape:window-maximized="1"
     inkscape:current-layer="g15">
    <inkscape:grid
       type="xygrid"
       id="grid1407" />
  </sodipodi:namedview>
  <linearGradient
     id="a"
     gradientUnits="userSpaceOnUse"
     x1="17"
     x2="17"
     y1="29"
     y2="18">
    <stop
       offset="0"
       stop-color="#0040dd"
       id="stop2" />
    <stop
       offset="1"
       stop-color="#0a84ff"
       id="stop4" />
  </linearGradient>
  <g
     fill="#808080"
     id="g15">
    <g
       aria-label="AB"
       style="font-style:normal;font-weight:normal;font-size:16.87509727px;line-height:1.25;font-family:sans-serif;letter-spacing:0px;word-spacing:0px;fill:#4b4b4f;fill-opacity:1;stroke:none;stroke-width:0.42187744"
       id="text839"
       transform="translate(3)">
      <path
         inkscape:connector-curvature="0"
         d="M 10.679488,12.195611 H 5.9828053 l -0.955816,2.80153 H 3 L 7.4082896,3.0000014 H 9.3034421 L 13.662293,14.997141 H 11.627064 Z M 6.5595909,10.522933 H 10.110942 L 8.3723455,5.3977814 h -0.049439 z"
         style="font-style:normal;font-variant:normal;font-weight:500;font-stretch:normal;font-family:Roboto;-inkscape-font-specification:'Roboto Medium';fill:#4b4b4f;fill-opacity:1;stroke-width:0.42187744"
         id="path848" />
      <path
         inkscape:connector-curvature="0"
         d="M 15.054818,14.997141 V 3.0000014 h 3.98806 q 1.99403,0 3.114642,0.8239794 1.120612,0.8157395 1.120612,2.4472187 0,0.8157395 -0.469668,1.4584434 -0.469668,0.6427039 -1.301887,0.9558161 1.071173,0.238954 1.647958,1.0299742 0.576786,0.7910198 0.576786,1.8374738 0,1.689158 -1.104132,2.570816 -1.104133,0.873418 -3.048724,0.873418 z m 2.00227,-5.4547435 v 3.8562235 h 2.521377 q 1.038214,0 1.59852,-0.469668 0.560306,-0.477908 0.560306,-1.376046 0,-0.955816 -0.469668,-1.483163 -0.469669,-0.5273465 -1.466684,-0.5273465 z m 0,-1.4914026 h 2.208265 q 0.931097,0 1.466683,-0.4367091 0.543826,-0.4449488 0.543826,-1.2524486 0,-0.8898977 -0.568545,-1.318367 -0.568546,-0.436709 -1.664439,-0.436709 h -1.98579 z"
         style="font-style:normal;font-variant:normal;font-weight:500;font-stretch:normal;font-family:Roboto;-inkscape-font-specification:'Roboto Medium';fill:#4b4b4f;fill-opacity:1;stroke-width:0.42187744"
         id="path850" />
    </g>
    <path
       d="m4 18c-.5577284 0-1.0058594.448131-1.0058594 1.005858v8.988212c0 .557728.448131 1.005859 1.0058594 1.005859h23.988282c.557728 0 1.005859-.448131 1.005859-1.005859v-8.988212c0-.557727-.448131-1.005858-1.005859-1.005858z"
       fill="url(#a)"
       id="path7" />
  </g>
  <g
     fill="#fff"
     id="g21">
    <path
       d="m8.5606797 25.833333h1.4555023v-3.696491c0-.161404.0057-.329825.01699-.505263l-.9797738.784211c-.064185.04912-.1283709.07895-.1925567.08947-.064185.0105-.1245952.0105-.1812296 0-.056634-.0105-.1076052-.02806-.1529126-.05263-.041532-.02807-.073625-.05614-.096278-.08421l-.4304213-.547367 2.259709-1.821053h1.240291v5.833333h1.166667v1.166667h-4.1059873z"
       id="path17" />
    <path
       d="m21.437269 20q.478098 0 .867853.145942.394952.140729.670379.40134.280624.260611.431328.630678.155903.364854.155903.807892 0 .380492-.10913.708861-.10913.323158-.291017.620254-.181885.291884-.426132.573343-.244247.276248-.514477.557707l-1.465479 1.537602q.233853-.07297.467707-.109457.233852-.0417.436525-.0417h1.564217q.197476 0 .317.114672.124721.114666.124721.302305v.750559h-4.666667v-.422189q0-.119881.04677-.255399.05196-.140729.176689-.26061l2.005939-2.069248q.25464-.265823.44692-.505585.197475-.239761.327394-.474311.135114-.239761.202673-.479524.06756-.244973.06756-.510796 0-.479524-.23905-.724498-.23905-.244974-.675576-.244974-.187082 0-.342984.05734-.155902.05734-.280623.156366-.124722.09903-.213066.234551-.08834.135518-.135116.291884-.08315.23976-.228656.312732-.140311.07296-.389754.03127l-.665187-.11466q.07795-.505585.280623-.880865.202673-.380491.504084-.630677.306607-.255398.701558-.380492.394955-.130313.847071-.130313z"
       id="path19" />
  </g>
</svg>
